components/ui-node-icon/src/winFunc/winFunc.small.svg

<svg width="16" height="16" viewBox="0 0 16 16" fill="none" xmlns="http://www.w3.org/2000/svg">
  <path fill-rule="evenodd" clip-rule="evenodd" d="M12 2H13C13.5523 2 14 2.44772 14 3C14 3.55228 13.5523 4 13 4H12C11.4477 4 11 3.55228 11 3C11 2.44772 11.4477 2 12 2ZM10 3C10 1.89543 10.8954 1 12 1H13C14.1046 1 15 1.89543 15 3C15 4.10457 14.1046 5 13 5H12C10.8954 5 10 4.10457 10 3ZM12 7H13C13.5523 7 14 7.44772 14 8C14 8.55228 13.5523 9 13 9H12C11.4477 9 11 8.55229 11 8C11 7.44772 11.4477 7 12 7ZM10 8C10 6.89543 10.8954 6 12 6H13C14.1046 6 15 6.89543 15 8C15 9.10457 14.1046 10 13 10H12C10.8954 10 10 9.10457 10 8ZM13 12H12C11.4477 12 11 12.4477 11 13C11 13.5523 11.4477 14 12 14H13C13.5523 14 14 13.5523 14 13C14 12.4477 13.5523 12 13 12ZM12 11C10.8954 11 10 11.8954 10 13C10 14.1046 10.8954 15 12 15H13C14.1046 15 15 14.1046 15 13C15 11.8954 14.1046 11 13 11H12ZM2 9V6H4V9H2ZM4 10H2V13.5C2 13.7761 1.77614 14 1.5 14C1.22386 14 1 13.7761 1 13.5V2.5C1 2.22386 1.22386 2 1.5 2C1.77614 2 2 2.22386 2 2.5V5H4V2.5C4 2.22386 4.22386 2 4.5 2C4.77614 2 5 2.22386 5 2.5V7H7.29289L7.14645 6.85355C6.95118 6.65829 6.95118 6.34171 7.14645 6.14645C7.34171 5.95118 7.65829 5.95118 7.85355 6.14645L8.85355 7.14645C9.04882 7.34171 9.04882 7.65829 8.85355 7.85355L7.85355 8.85355C7.65829 9.04882 7.34171 9.04882 7.14645 8.85355C6.95118 8.65829 6.95118 8.34171 7.14645 8.14645L7.29289 8H5V13.5C5 13.7761 4.77614 14 4.5 14C4.22386 14 4 13.7761 4 13.5V10Z" fill="currentColor"/>
</svg>

<svg xmlns="http://www.w3.org/2000/svg" width="16" height="16" fill="none" viewBox="0 0 16 16">
  <path fill="currentColor" fill-rule="evenodd" d="M12 2h1a1 1 0 1 1 0 2h-1a1 1 0 1 1 0-2Zm-2 1a2 2 0 0 1 2-2h1a2 2 0 1 1 0 4h-1a2 2 0 0 1-2-2Zm2 4h1a1 1 0 1 1 0 2h-1a1 1 0 1 1 0-2Zm-2 1a2 2 0 0 1 2-2h1a2 2 0 1 1 0 4h-1a2 2 0 0 1-2-2Zm3 4h-1a1 1 0 1 0 0 2h1a1 1 0 1 0 0-2Zm-1-1a2 2 0 1 0 0 4h1a2 2 0 1 0 0-4h-1ZM2 9V6h2v3H2Zm2 1H2v3.5a.5.5 0 0 1-1 0v-11a.5.5 0 0 1 1 0V5h2V2.5a.5.5 0 0 1 1 0V7h2.293l-.147-.146a.5.5 0 1 1 .708-.708l1 1a.5.5 0 0 1 0 .708l-1 1a.5.5 0 1 1-.708-.708L7.293 8H5v5.5a.5.5 0 0 1-1 0V10Z" clip-rule="evenodd"/>
</svg>
